public/avatar/item1/40.svg

<svg xmlns:xlink="http://www.w3.org/1999/xlink" height="65.4" width="80.15" xmlns="http://www.w3.org/2000/svg"><use height="9.4" transform="translate(12.55 35.85)" width="9.5" xlink:href="#a"/><defs><g id="a" fill-rule="evenodd"><path d="M-13.6 30q-.35-1.5 0-1.9l1.3 1.4-1 .95-.3-.45" fill="#033c3f" transform="translate(19.05 -22.05)"/><path d="m-12.55 24 .6 1.5.7.1q.75.25.95.9l.2 1.65-.1.1-.05.5.4.45q.75 1.75-.35 2.05l-2.5.2q-1.65-1.35-.85-2.6l.3-.6-.35.35-.3-.35q-.2-.4.1-.55-.9.15-1.55-.45l-.3-.2.1.15-.15-.2.05.05-.65-.95q-1.75.25-2.65-1.5l-.1-.8q0-.9.7-1.2l.75-.45q1.05-.3 2.25.3l.55.9.75-.1q.9.05 1.5.75" fill="#033c3f" transform="translate(19.05 -22.05)"/><path d="M-15.1 24.1q0 1.65-1.6 1.65-1.65 0-1.65-1.65 0-1.6 1.65-1.6 1.6 0 1.6 1.6" fill="#00dbff" transform="translate(19.05 -22.05)"/><path d="M-12.55 25.35q0 1.7-1.65 1.7-1.7 0-1.7-1.7 0-1.65 1.7-1.65 1.65 0 1.65 1.65" fill="#00dbff" transform="translate(19.05 -22.05)"/><path d="M-10.65 27.45q0 1.35-1.4 1.35-1.35 0-1.35-1.35 0-1.4 1.35-1.4 1.4 0 1.4 1.4" fill="#00dbff" transform="translate(19.05 -22.05)"/><path d="M-10.15 29.8q0 1.5-1.5 1.5t-1.5-1.5q0-1.5 1.5-1.5t1.5 1.5" fill="#00dbff" transform="translate(19.05 -22.05)"/><path d="M-10.65 29.45q.25.65-.1 1.15-.65 1-1.7.35-.75-.5-.5-1.35l.4.6q1.05.7 1.75-.35l.15-.4m-.45-2.9q.4.5.25 1.1-.3 1.2-1.45.95-.85-.25-.95-1.1l.6.4q1.2.35 1.5-.9l.05-.45m-1.75-1.5q.4 1.35-.9 1.7-.85.3-1.45-.4h.8q1.3-.45.85-1.75l-.25-.45q.7.15.95.9m-2.7-1.55q.65 1.2-.55 1.85l-1.55-.15.8-.15q1.2-.6.55-1.85-.1-.25-.35-.4.7 0 1.1.7" fill="#047884" transform="translate(19.05 -22.05)"/><path d="M-17.9 23.65q.1-.3.9-.25l-.1.6q0 .3-.9.4l.1-.75m2.85 1.15.85-.25-.3.6q-.15.35-.6.35-.35 0-.15-.3l.2-.4m2.2 2.35q-.55.15-.15-.25.35-.45 1.05-.55.55 0-.45.65l-.45.15m1.65 1.65q.55 0-.5.6l-.25.05q-.45.15-.4-.1l.4-.4.75-.15" fill="#fff" transform="translate(19.05 -22.05)"/></g></defs></svg>

<?xml version="1.0" encoding="UTF-8" standalone="no"?>
<svg xmlns:xlink="http://www.w3.org/1999/xlink" height="65.4px" width="80.15px" xmlns="http://www.w3.org/2000/svg">
  <g transform="matrix(1.0, 0.0, 0.0, 1.0, 31.6, 13.8)">
    <use height="9.4" transform="matrix(1.0, 0.0, 0.0, 1.0, -19.05, 22.05)" width="9.5" xlink:href="#shape0"/>
  </g>
  <defs>
    <g id="shape0" transform="matrix(1.0, 0.0, 0.0, 1.0, 19.05, -22.05)">
      <path d="M-13.6 30.0 Q-13.95 28.5 -13.6 28.1 L-12.3 29.5 -13.3 30.45 -13.6 30.0" fill="#033c3f" fill-rule="evenodd" stroke="none"/>
      <path d="M-12.55 24.0 L-11.95 25.5 -11.25 25.6 Q-10.5 25.85 -10.3 26.5 L-10.1 28.15 -10.2 28.25 -10.25 28.75 -9.85 29.2 Q-9.1 30.95 -10.2 31.25 L-12.7 31.45 Q-14.35 30.1 -13.55 28.85 L-13.25 28.25 -13.6 28.6 -13.9 28.25 Q-14.1 27.85 -13.8 27.7 -14.7 27.85 -15.35 27.25 L-15.65 27.05 -15.55 27.2 -15.7 27.0 -15.65 27.05 -16.3 26.1 Q-18.05 26.35 -18.95 24.6 L-19.05 23.8 Q-19.05 22.9 -18.35 22.6 L-17.6 22.15 Q-16.55 21.85 -15.35 22.45 L-14.8 23.35 -14.05 23.25 Q-13.15 23.3 -12.55 24.0" fill="#033c3f" fill-rule="evenodd" stroke="none"/>
      <path d="M-15.1 24.1 Q-15.1 25.75 -16.7 25.75 -18.35 25.75 -18.35 24.1 -18.35 22.5 -16.7 22.5 -15.1 22.5 -15.1 24.1" fill="#00dbff" fill-rule="evenodd" stroke="none"/>
      <path d="M-12.55 25.35 Q-12.55 27.05 -14.2 27.05 -15.9 27.05 -15.9 25.35 -15.9 23.7 -14.2 23.7 -12.55 23.7 -12.55 25.35" fill="#00dbff" fill-rule="evenodd" stroke="none"/>
      <path d="M-10.65 27.45 Q-10.65 28.8 -12.05 28.8 -13.4 28.8 -13.4 27.45 -13.4 26.05 -12.05 26.05 -10.65 26.05 -10.65 27.45" fill="#00dbff" fill-rule="evenodd" stroke="none"/>
      <path d="M-10.15 29.8 Q-10.15 31.3 -11.65 31.3 -13.15 31.3 -13.15 29.8 -13.15 28.3 -11.65 28.3 -10.15 28.3 -10.15 29.8" fill="#00dbff" fill-rule="evenodd" stroke="none"/>
      <path d="M-10.65 29.45 Q-10.4 30.1 -10.75 30.6 -11.4 31.6 -12.45 30.95 -13.2 30.45 -12.95 29.6 L-12.55 30.2 Q-11.5 30.9 -10.8 29.85 L-10.65 29.45" fill="#047884" fill-rule="evenodd" stroke="none"/>
      <path d="M-11.1 26.55 Q-10.7 27.05 -10.85 27.65 -11.15 28.85 -12.3 28.6 -13.15 28.35 -13.25 27.5 L-12.65 27.9 Q-11.45 28.25 -11.15 27.0 L-11.1 26.55" fill="#047884" fill-rule="evenodd" stroke="none"/>
      <path d="M-12.85 25.05 Q-12.45 26.4 -13.75 26.75 -14.6 27.05 -15.2 26.35 L-14.4 26.35 Q-13.1 25.9 -13.55 24.6 L-13.8 24.15 Q-13.1 24.3 -12.85 25.05" fill="#047884" fill-rule="evenodd" stroke="none"/>
      <path d="M-15.55 23.5 Q-14.9 24.7 -16.1 25.35 L-17.65 25.2 -16.85 25.05 Q-15.65 24.45 -16.3 23.2 -16.4 22.95 -16.65 22.8 -15.95 22.8 -15.55 23.5" fill="#047884" fill-rule="evenodd" stroke="none"/>
      <path d="M-17.9 23.65 Q-17.8 23.35 -17.0 23.4 L-17.1 24.0 Q-17.1 24.3 -18.0 24.4 L-17.9 23.65" fill="#ffffff" fill-rule="evenodd" stroke="none"/>
      <path d="M-15.05 24.8 L-14.2 24.55 -14.5 25.15 Q-14.65 25.5 -15.1 25.5 -15.45 25.5 -15.25 25.2 L-15.05 24.8" fill="#ffffff" fill-rule="evenodd" stroke="none"/>
      <path d="M-12.85 27.15 Q-13.4 27.3 -13.0 26.9 -12.65 26.45 -11.95 26.35 -11.4 26.35 -12.4 27.0 L-12.85 27.15" fill="#ffffff" fill-rule="evenodd" stroke="none"/>
      <path d="M-11.2 28.8 Q-10.65 28.8 -11.7 29.4 L-11.95 29.45 Q-12.4 29.6 -12.35 29.35 L-11.95 28.95 -11.2 28.8" fill="#ffffff" fill-rule="evenodd" stroke="none"/>
    </g>
  </defs>
</svg>
